!!!!SEGMENT: pl-wumfc--r311--001_paderewski-ignacy-jan--mazurka.krn
!!!cenid: 18xx:3384
!!!COM: Paderewski, Ignacy Jan
!!!COM-rismID: pe30029943
!!!CDT: 1860/11/18-1941/06/29
!!!CNT: Polish
!!!OTL: [Mazurka]
!!!PDT:
!!!AGN:
!!!SMS-siglum: PL-Wumfc
!!!SMS-shelfmark: R311
!!!SMS-shelfwork: 001 W
!!!SMS-variant:
!!!SMS-altvar:
!!!NIFC-rismSourceID: 1001159531
!!!NIFC-rismChildID: 1001159531
!!!NIFC-islandoraID: pl-wumfc:18190
!!!URL-pdf-islandora: https://repozytorium.nifc.pl/islandora/object/pl-wumfc%3A18190/datastream/PDF/view
!!!URL-scan: https://polish.musicsources.pl/pl/lokalizacje/galeria/rekopisy/4732-piano-pieces/1 @EN{Scan on Polish Music Sources Website} @PL{Skany w portalu Dziedzictwo Muzyki Polskiej w otwartym dostępie}
!!!ONB-nifc: UWAGA: skan 0001
!!!AIN: 2 piano
!!!key: F
**kern	**kern	**dynam
*group1	*group1	*
*part2	*part1	*part1
*staff2	*staff1	*
*I"[Piano]	*I"[Piano]	*
*mI"[Pianoforte]	*mI"[Pianoforte]	*
*Ipiano	*Ipiano	*
*ICklav	*ICklav	*
*clefF4	*clefG2	*
*k[b-]	*k[b-]	*
*F:	*F:	*
*M3/4	*M3/4	*
*>[A,B,B1,B,B2]	*>[A,B,B1,B,B2]	*
=1	=1	=1
*>A	*>A	*
!LO:TX:t=P:problem=all\right&colon; global	!LO:TX:t=P:problem=all\right&colon; global	!
2.r	8cc\L	.
.	8cc\J	.
.	4cc\	.
.	4cc\	.
*clefG2	*	*
=2	=2	=2
4b-/ 4g/	4cc\	.
4a/ 4f/	4cc\	.
4g/ 4c/	4cc\	.
*clefF4	*	*
=3!|:	=3!|:	=3!|:
*>B	*>B	*
4CC/	4cc\	.
4c\ 4B-\ 4G\ 4E\	8cc\L	.
.	8ee\J	.
4c\ 4B-\ 4G\ 4E\	8b-\L	.
.	8dd\J	.
=4	=4	=4
4E\	8a\L	.
.	8cc\J	.
4c\ 4B-\ 4G\	4g/	.
4c\ 4B-\ 4G\	8g/L	.
.	8b-/J	.
=5	=5	=5
4FF/	8a/L	.
.	8a/J	.
4c\ 4A\ 4F\	4f/	.
!	!LO:TX:t=P:4\left:problem	!
4c\ 4A\ 4F\	4dd\	.
!!LO:LB:g=original
=6	=6	=6
!LO:TX:t=P:4\left:problem	!	!
4F\ 4AA\	4cc\	.
4c 4A\	8f/L	.
.	8a/J	.
4c 4B-\	8g/L	.
.	8f/J	.
=7	=7	=7
4E\ 4GG\	8fM>/L	.
.	8f/J	.
4c\ 4B-\ 4G\	4e/	.
4c\ 4B-\ 4G\	4dd/	.
=8	=8	=8
*rep	*	*
4E\ 4GG\	4cc\	.
4c\ 4B-\ 4G\	8g/L	.
.	8b-/J	.
4c\ 4B-\ 4G\	8a/L	.
.	8g/J	.
*Xrep	*	*
=9	=9	=9
4F\	8fM>/L	.
.	8f/J	.
4c\ 4A\	4e/	.
4c\ 4A\	4dd/	.
=10	=10	=10
*2\left	*	*
2.c\ 2.A\ 2.F\	4cc\	.
.	8cc\L	.
.	8cc\	.
.	8cc\	.
.	8cc\J	.
!!LO:LB:g=original
=11	=11	=11
*8ba	*	*
4CC/ 4CCC/	4cc\	fp
*X8ba	*	*
4c\ 4B-\ 4G\ 4E\	8cc\L	.
.	8ee\J	.
4c\ 4B-\ 4G\ 4E\	8b-\L	.
.	8dd\J	.
=12	=12	=12
4E\	8a\L	.
.	8cc\J	.
4c\ 4B-\ 4G\	4g/	.
4c\ 4B-\ 4G\	8g/L	.
.	8b-/J	.
=13	=13	=13
4F\	8a/L	.
.	8a/J	.
4c\ 4A\	4f/	.
4c\ 4A\	4dd/	.
=14	=14	=14
*2\right	*	*
2.c\ 2.A\ 2.F\	4cc\	.
.	8cc\L	.
.	8cc\	.
.	8cc\	.
.	8cc\J	.
=15||	=15||	=15||
!!LO:MO:ori
!!LO:TX:a:t=1a Valta
!!LO:MO:end
!!LO:MO:mod
!! !!LO:TX:a:t=I volta
!!LO:MO:end
*>B1	*>B1	*
4GG/	8bnM\L	.
.	8b\J	.
4f\ 4d\ 4Bn\ 4G\	4g\	.
4f\ 4d\ 4B\ 4G\	4gg\	.
!!LO:LB:g=original
=16	=16	=16
4G\	4gg\	.
4f\ 4d\ 4Bn\	8dd\L	.
.	8ff\	.
4f\ 4d\ 4B\	8ee\	.
.	8dd\J	.
=17	=17	=17
*2\left	*	*
2.e\ 2.c\ 2.G\	8cc\L	.
.	8cc\J	.
.	4cc\	.
.	4cc\	.
*clefG2	*	*
=18	=18	=18
4b-/ 4g/	4cc\	.
4a/ 4f/	4cc\	.
4g/ 4c/	4cc\	.
*clefF4	*	*
=19:|!	=19:|!	=19:|!
!!LO:MO:mod
!! !!LO:TX:a:t=II volta
!!LO:MO:end
*>B2	*>B2	*
!	!	!LO:DY:t= :mod=%s
!	!	!LO:MO:mod=!LO&colon;DY&colon;ed=
!	!	!null
4D/ 4DD/	8ff#X\L 8dd\ 8cc\ 8a\	f
!	!	!LO:MO:mod=.
.	8ff#\J 8dd\ 8cc\ 8a\	f
4c\ 4A\ 4F#X\ 4D\	4ff#\ 4dd\ 4cc\ 4a\	.
4c\ 4A\ 4F#\ 4D\	4ff#\ 4dd\ 4cc\ 4a\	.
=20	=20	=20
!!LO:MO:ori
!!LO:TX:a:t=2a Valta
!!LO:MO:end
!	!	!LO:MO:mod=.
4GG/ 4GGG/	8gg:\L 8dd:\ 8b-:\	f
.	8aa\J	.
4d\ 4B-\ 4G\	4bb-\	.
4d\ 4B-\ 4G\	8bb-\L	.
.	8ddd\J	.
!!LO:LB:g=original
=21	=21	=21
4CC/	4ccc\	.
4c\ 4B-\ 4G\ 4E\	4bb-M>\	.
4c\ 4B-\ 4G\ 4E\	8aa\L	.
.	8gg\J	.
=22	=22	=22
4F\	4ff\	.
4c\ 4A\ 4F\	4fff\ 4ccc\ 4aa\ 4ff\	.
4r	4r	.
==	==	==
*-	*-	*-
!!!system-decoration: [(g1)]
!!!system-decoration-mod: {(g1)}
!!!filter-modern: sic -sq | shed -e "s/LO:DY:(a|b|rj)/LO:dy:$1/L" | shed -e "s/TX(.*):t=P:/tx$1:t=P:/LG" | modori -m | autostem -r | shed -e "s/yy//" | shed -k -e "s/\(y([^y])/($1/" | shed -e "s/-//B" | shed -e "s/^(\d+[\/\\]right)/$1yy/I; s/^(\d+[\/\\]left)/$1yy/I" | shed -e "s/^(X?)rep$/$1REP/I" | shed -k -e "s/[<>]//g" | shed -k -e "s/r[a-gA-G]+/r/D"
!!!ENC: Filip Voros
!!!END: 2021-12-07
!!!EED: Jędrzej Mróz
!!!EEV: 2021-12-17
!!!EED-modern: Antoni Szymański
!!!END-modern: 2022-09-07
!!!YEC: Copyright 2022 Narodowy Instytut Fryderyka Chopina (https://polishscores.org)
!!!YEM: License CC-BY-4.0 (https://creativecommons.org/licenses/by/4.0)
